X: 37209
T: Sir Wilfrid Laurier's
R: jig
M: 6/8
K: Gmajor
M:12/8
d|gfg B^AB d3- d=ag|f2 e e2 c e3- eag|
f^ef A2 B c3- cBc|d2 e dBG B3- B2 d|
gfg B^AB d3- d2 g|f2 e e2 c e3- e2 f|
gag gdB ded dB/c/d|fed cBA G3- G2||
D|G2 G GDG ded B2 d|dBd dBd ege c2 e|
ece ece g3- gag|fed cBA B3- B2 d|
GAG GDG d^cd B2 d|dBd dB/c/d ege c2 e|
ece ec/d/e g3- gag|fed cBA G3- G2||

